!!!COM: Bach, Johann Sebastian
!!!OTL@@DE: 305. Wie s&ouml;chn leuchtet der Morgenstern
!!!OTL@EN: How brightly shines the morning star
!!!SCA: BWV 36.4
**harm	**root	**kern	**kern	**kern	**kern
*staff2	*	*staff2	*staff2	*staff1	*staff1
*Iorgan	*Iorgan	*Iorgan	*Iorgan	*Iorgan	*Iorgan
*>[A,A,B]	*>[A,A,B]	*>[A,A,B]	*>[A,A,B]	*>[A,A,B]	*>[A,A,B]
*>norep[A,B]	*>norep[A,B]	*>norep[A,B]	*>norep[A,B]	*>norep[A,B]	*>norep[A,B]
*>A	*>A	*>A	*>A	*>A	*>A
!	!	!bass	!tenor	!alto	!sprno
*	*	*clefF4	*clefF4	*clefG2	*clefG2
*k[f#c#g#]	*k[f#c#g#]	*k[f#c#g#]	*k[f#c#g#]	*k[f#c#g#]	*k[f#c#g#]
*A:	*A:	*A:	*A:	*A:	*A:
*met(c)	*met(c)	*met(c)	*met(c)	*met(c)	*met(c)
*M4/4	*M4/4	*M4/4	*M4/4	*M4/4	*M4/4
*MM60	*MM60	*MM60	*MM60	*MM60	*MM60
I	4DD	4AA	4C#	4E	4A
=1	=1	=1	=1	=1	=1
Vb	4AA	4GG#	4BB	4E	4e
I	8DD	8AAL	8AAL	4E	8c#L
Vb	8AA	8GG#J	8BBJ	.	8BJ
vi	4BB	4FF#	8C#L	4F#	4A
.	.	.	8D#J	.	.
iii	4FF#	8C#L	4E	4G#	4e
.	.	8BBJ	.	.	.
=2	=2	=2	=2	=2	=2
vi7	4BB	8AAL	4E	4c#	8.f#L
.	.	8FF#J	.	.	.
.	.	.	.	.	32g#LL
.	.	.	.	.	32aJJJ
V/V	4EE	4BB	4D#	4B	8g#L
.	.	.	.	.	8f#J
V;	4AA;	4EE;	4G#;	4B;	4e;
I	4DD	4AA	4A	4c#	4e
=3	=3	=3	=3	=3	=3
IV	4GG	4D	4A	4d	4f#
viiob	4CC#	8C#L	4B	4d	4g#
.	.	8BBJ	.	.	.
Ib	4DD	8C#L	8EL	4c#	4a
.	.	8D#J	8F#J	.	.
V	4AA	4E	4G#	8BL	4g#
.	.	.	.	8eJ	.
=4	=4	=4	=4	=4	=4
vi7b	8BB	4AA	8C#L	4e	8f#L
I	8DD	.	8c#J	.	8aJ
V7/V	4EE	4BB	8BL	4d#	8g#L
.	.	.	8AJ	.	8f#J
V;	4AA;	4EE;	4G#;	4B;	4e;
I	4DD	4AA	4E	4A	4c#
=5	=5	=5	=5	=5	=5
IV	4GG	4D	4D	4A	4f#
Ib	4DD	4C#	4E	4A	4e
viio7b	4CC#	4BB	8F#L	8AL	4d
.	.	.	8DJ	8G#J	.
I	4DD	4AA	4E	4A	4c#
=6	=6	=6	=6	=6	=6
V7	2AA	2EE	4.E	4A	2B
.	.	.	.	4G#	.
.	.	.	8D	.	.
I;	4DD;	4AA;	4C#;	4E;	4A;
=7:|!	=7:|!	=7:|!	=7:|!	=7:|!	=7:|!
!!linebreak: 2
*>B	*>B	*>B	*>B	*>B	*>B
Vb	2AA	2GG#	2E	2B	2e
I;	2DD;	2AA;	2E;	2A;	2c#;
=8	=8	=8	=8	=8	=8
V	2AA	2EE	2G#	2B	2e
I;	2DD;	2AA;	2E;	2A;	2c#;
=9	=9	=9	=9	=9	=9
I	4DD	8AAL	4E	4A	4c#
.	.	8BB	.	.	.
Ib	4DD	8C#	4E	4A	4c#
.	.	8DJ	.	.	.
V	4AA	8EL	4E	4G#	4B
.	.	8F#	.	.	.
V	4AA	8E	4E	4G#	4B
.	.	8DJ	.	.	.
=10	=10	=10	=10	=10	=10
Ib	4DD	8C#L	4E	4A	4c#
.	.	8BB	.	.	.
I	4DD	8C#	4E	4A	4c#
.	.	8AAJ	.	.	.
V	4AA	8EEL	4E	4G#	4B
.	.	8E	.	.	.
viiob/II	4DD#	8D	4E	4A#	4c#
.	.	8C#J	.	.	.
=11	=11	=11	=11	=11	=11
ii	4EE	4BB	8F#L	4B	4d
.	.	.	8G#J	.	.
vi	4BB	8F#L	4A	8AL	4c#
.	.	8EJ	.	8G#J	.
ii7b	4EE	4D	8AL	4F#	2B
.	.	.	16G#L	.	.
.	.	.	16F#JJ	.	.
V7	4AA	4E	8EL	4G#	.
.	.	.	8DJ	.	.
=12	=12	=12	=12	=12	=12
I;	2DD;	2AA;	2C#;	2E;	2A;
vi	4BB	4FF#	8C#L	4c#	4a
.	.	.	8D#J	.	.
V/VI	4FF#	4CC#	4E#	8c#L	4g#
.	.	.	.	8BJ	.
=13	=13	=13	=13	=13	=13
IV	4GG	4DD	4F#	8AL	4f#
.	.	.	.	8BJ	.
iiib	4FF#	4EE	4G#	[4c#	4e
IV7	8GG	8FF#L	8AL	8c#]	4d
viio	8CC#	8GG#J	8BJ	4B	.
I	4DD	4AA	4E	.	4c#
.	.	.	.	[8A	.
=14	=14	=14	=14	=14	=14
ii	4EE	4DD	4F#	8AL]	2B
.	.	.	.	16G#L	.
.	.	.	.	16F#JJ	.
V7	4AA	4EE	8EL	4G#	.
.	.	.	8DJ	.	.
I;	4DD;	4AAA;	4C#;	4E;	4A;
==	==	==	==	==	==
*-	*-	*-	*-	*-	*-
!!!ENC: Craig Stuart Sapp
!!!END: 2004/12/06/
!!chor2scor: -l 2 -s 0.6 -o %b.pmx!!chor2scor: -l 2 -s 0.6 -o %b.pmx
